svg/set/M3C/R.svg

<?xml version="1.0" encoding="UTF-8" standalone="no"?>
<svg
   width="1000"
   height="1000"
   viewBox="0 0 1000 1000"
   version="1.1"
   xml:space="preserve"
   style="clip-rule:evenodd;fill-rule:evenodd;stroke-linejoin:round;stroke-miterlimit:2"
   id="svg51"
   xmlns="http://www.w3.org/2000/svg"
   xmlns:svg="http://www.w3.org/2000/svg">
    <g
   transform="translate(-2415.9967)"
   id="g7">
        <g
   id="R"
   transform="translate(-0.333333)">
            <rect
   x="2416.3301"
   y="0"
   width="1000"
   height="1000"
   style="fill:none"
   id="rect1" />
            <g
   transform="translate(2419.46,0.657907)"
   id="g1">
                <path
   d="m 929.178,560.502 c 0,0 -75.429,334.319 -429.178,418.86 0,0 -326.007,-48.326 -428.569,-418.86 0,0 124.361,-27.197 127.426,-179.313 C 201.922,229.072 57.062,201.875 57.062,201.875 L 212.392,20.84 h 574.979 l 155.351,181.035 c 0,0 -141.542,34.707 -142.235,179.314 -0.692,144.607 128.691,179.313 128.691,179.313 z"
   id="path1" />
            </g>
            <g
   transform="translate(2419.46,0.657907)"
   id="g2">
                <path
   d="M 133.678,184.941 224.784,78.827 c 0,0 51.734,69.105 85.645,158.897 33.91,89.791 71.557,297.061 18.221,510.511 0,0 -2.868,29.95 -24.407,88.413 0,0 -128.673,-91.613 -175.823,-249.37 0,0 77.369,-34.411 107.477,-132.607 0,0 51.453,-179.999 -102.219,-269.73 z"
   style="fill:url(#_Linear1)"
   id="path2" />
            </g>
            <g
   transform="matrix(-1,0,0,1,3418.32,0.657907)"
   id="g3">
                <path
   d="M 133.678,184.941 224.784,78.827 c 0,0 51.734,69.105 85.645,158.897 33.91,89.791 71.557,297.061 18.221,510.511 0,0 -2.868,29.95 -24.407,88.413 0,0 -128.673,-91.613 -175.823,-249.37 0,0 77.369,-34.411 107.477,-132.607 0,0 51.453,-179.999 -102.219,-269.73 z"
   style="fill:url(#_Linear2)"
   id="path3" />
            </g>
            <g
   transform="translate(2419.46,0.657907)"
   id="g4">
                <path
   d="m 267.608,66.979 h 464.359 c 0,0 -46.986,62.265 -77.648,149.045 -30.663,86.78 -27.77,528.204 -27.77,528.204 0,0 13.227,66.752 32.724,116.745 0,0 -68.455,45.808 -159.273,70.732 0,0 -78.381,-18.34 -159.762,-70.835 0,0 33.748,-103.934 32.932,-118.223 L 345.474,215.368 c 0,0 -26.873,-76.663 -77.866,-148.389 z"
   style="fill:url(#_Linear3)"
   id="path4" />
            </g>
            <g
   transform="translate(2419.46,0.657907)"
   id="g5">
                <path
   d="m 102.341,391.289 c 0,0 244.91,-220.198 397.659,-224.377 0,0 98.635,-29.436 396.147,223.4 0,0 -152.21,55.047 -201.447,132.794 l 34.245,63.476 c 0,0 -74.006,-4.881 -55.512,38.273 0,0 21.058,26.91 47.006,-10.615 0,0 14.371,-31.936 16.367,-44.91 0,0 1.996,-10.18 20.959,-12.376 0,0 21.956,-1.796 25.349,26.747 3.393,28.543 9.927,52.037 -6.649,92.426 -16.576,40.389 -59.078,67.483 -106.717,71.966 0,0 -74.54,9.808 -117.695,-57.166 -43.156,-66.975 7.285,-142.916 7.285,-142.916 l -46.237,-28.023 c 0,0 79.304,-35.589 59.688,-100.602 -19.616,-65.013 -84.839,-54.924 -84.839,-54.924 0,0 -48.269,2.241 -62.56,60.249 -14.292,58.007 55.765,93.109 60.529,95.277 l -46.238,28.509 c 0,0 47.061,68.795 8.968,140.394 0,0 -21.511,40.98 -74.958,55.586 -53.447,14.607 -123.493,-6.823 -150.382,-69.049 -26.89,-62.226 1.328,-111.358 1.328,-111.358 0,0 29.213,-21.909 40.168,11.619 10.955,33.529 17.262,52.12 36.185,58.095 18.922,5.975 26.889,-13.279 26.889,-13.279 0,0 4.648,-25.229 -19.254,-31.537 -9.463,-2.497 -17.508,-2.631 -23.579,-2.853 -9.263,-0.338 -14.147,0.187 -14.147,0.187 l 33.312,-62.096 c 0,0 -52.691,-86.6 -201.87,-132.917 z"
   id="path5" />
            </g>
            <g
   transform="translate(2419.46,0.657907)"
   id="g6">
                <path
   d="m 821.306,378.66 c 0,0 -127.681,60.322 -168.934,144.451 l 18.439,33.769 c 0,0 -47.096,20.425 -33.933,71.957 13.163,51.532 72.817,41.169 72.817,41.169 0,0 25.486,-7.001 40.049,-35.568 0,0 -1.12,33.328 -28.566,56.293 -27.447,22.965 -61.054,21.845 -61.054,21.845 0,0 -41.45,1.12 -71.697,-33.327 -30.247,-34.448 -10.362,-85.7 -10.362,-85.7 0,0 5.601,-22.405 33.607,-56.853 l -32.207,-19.885 c 0,0 58.877,-53.204 17.644,-133.03 0,0 -38.021,-73.938 -126.883,-51.455 -88.862,22.483 -82.438,116.163 -82.438,116.163 0,0 2.603,42.412 30.706,68.111 l -32.54,20.523 c 0,0 60.491,59.974 36.171,125.533 0,0 -25.73,55.689 -93.756,49.345 -68.026,-6.344 -78.6,-77.19 -78.6,-77.19 0,0 21.501,46.525 71.198,34.189 0,0 56.747,-9.516 40.886,-75.075 0,0 -4.934,-23.615 -34.894,-37.362 l 19.738,-33.484 c 0,0 -44.265,-85.137 -168.222,-144.255 0,0 196.451,-174.107 321.415,-174.96 124.964,-0.852 321.416,174.796 321.416,174.796 z"
   style="fill:#ffffff"
   id="path6" />
            </g>
        </g>
    </g>
    <defs
   id="defs51">
        <linearGradient
   id="_Linear1"
   x1="0"
   y1="0"
   x2="1"
   y2="0"
   gradientUnits="userSpaceOnUse"
   gradientTransform="matrix(-664.516,0,0,-664.516,355.298,372.44)"><stop
     offset="0"
     style="stop-color:rgb(141,116,47);stop-opacity:1"
     id="stop7" /><stop
     offset="0.07"
     style="stop-color:rgb(150,125,56);stop-opacity:1"
     id="stop8" /><stop
     offset="0.18"
     style="stop-color:rgb(174,149,79);stop-opacity:1"
     id="stop9" /><stop
     offset="0.2"
     style="stop-color:rgb(179,154,84);stop-opacity:1"
     id="stop10" /><stop
     offset="0.22"
     style="stop-color:rgb(185,160,89);stop-opacity:1"
     id="stop11" /><stop
     offset="0.3"
     style="stop-color:rgb(202,176,104);stop-opacity:1"
     id="stop12" /><stop
     offset="0.39"
     style="stop-color:rgb(212,186,113);stop-opacity:1"
     id="stop13" /><stop
     offset="0.5"
     style="stop-color:rgb(215,189,116);stop-opacity:1"
     id="stop14" /><stop
     offset="0.61"
     style="stop-color:rgb(212,186,113);stop-opacity:1"
     id="stop15" /><stop
     offset="0.7"
     style="stop-color:rgb(202,176,104);stop-opacity:1"
     id="stop16" /><stop
     offset="0.78"
     style="stop-color:rgb(185,160,89);stop-opacity:1"
     id="stop17" /><stop
     offset="0.8"
     style="stop-color:rgb(179,154,84);stop-opacity:1"
     id="stop18" /><stop
     offset="0.86"
     style="stop-color:rgb(163,138,69);stop-opacity:1"
     id="stop19" /><stop
     offset="0.94"
     style="stop-color:rgb(147,122,53);stop-opacity:1"
     id="stop20" /><stop
     offset="1"
     style="stop-color:rgb(141,116,47);stop-opacity:1"
     id="stop21" /></linearGradient>
        <linearGradient
   id="_Linear2"
   x1="0"
   y1="0"
   x2="1"
   y2="0"
   gradientUnits="userSpaceOnUse"
   gradientTransform="matrix(-664.516,0,0,-664.516,355.298,372.44)"><stop
     offset="0"
     style="stop-color:rgb(141,116,47);stop-opacity:1"
     id="stop22" /><stop
     offset="0.07"
     style="stop-color:rgb(150,125,56);stop-opacity:1"
     id="stop23" /><stop
     offset="0.18"
     style="stop-color:rgb(174,149,79);stop-opacity:1"
     id="stop24" /><stop
     offset="0.2"
     style="stop-color:rgb(179,154,84);stop-opacity:1"
     id="stop25" /><stop
     offset="0.22"
     style="stop-color:rgb(185,160,89);stop-opacity:1"
     id="stop26" /><stop
     offset="0.3"
     style="stop-color:rgb(202,176,104);stop-opacity:1"
     id="stop27" /><stop
     offset="0.39"
     style="stop-color:rgb(212,186,113);stop-opacity:1"
     id="stop28" /><stop
     offset="0.5"
     style="stop-color:rgb(215,189,116);stop-opacity:1"
     id="stop29" /><stop
     offset="0.61"
     style="stop-color:rgb(212,186,113);stop-opacity:1"
     id="stop30" /><stop
     offset="0.7"
     style="stop-color:rgb(202,176,104);stop-opacity:1"
     id="stop31" /><stop
     offset="0.78"
     style="stop-color:rgb(185,160,89);stop-opacity:1"
     id="stop32" /><stop
     offset="0.8"
     style="stop-color:rgb(179,154,84);stop-opacity:1"
     id="stop33" /><stop
     offset="0.86"
     style="stop-color:rgb(163,138,69);stop-opacity:1"
     id="stop34" /><stop
     offset="0.94"
     style="stop-color:rgb(147,122,53);stop-opacity:1"
     id="stop35" /><stop
     offset="1"
     style="stop-color:rgb(141,116,47);stop-opacity:1"
     id="stop36" /></linearGradient>
        <linearGradient
   id="_Linear3"
   x1="0"
   y1="0"
   x2="1"
   y2="0"
   gradientUnits="userSpaceOnUse"
   gradientTransform="matrix(0,993.774,-993.774,0,500,-27.0208)"><stop
     offset="0"
     style="stop-color:rgb(141,116,47);stop-opacity:1"
     id="stop37" /><stop
     offset="0.07"
     style="stop-color:rgb(150,125,56);stop-opacity:1"
     id="stop38" /><stop
     offset="0.18"
     style="stop-color:rgb(174,149,79);stop-opacity:1"
     id="stop39" /><stop
     offset="0.2"
     style="stop-color:rgb(179,154,84);stop-opacity:1"
     id="stop40" /><stop
     offset="0.22"
     style="stop-color:rgb(185,160,89);stop-opacity:1"
     id="stop41" /><stop
     offset="0.3"
     style="stop-color:rgb(202,176,104);stop-opacity:1"
     id="stop42" /><stop
     offset="0.39"
     style="stop-color:rgb(212,186,113);stop-opacity:1"
     id="stop43" /><stop
     offset="0.5"
     style="stop-color:rgb(215,189,116);stop-opacity:1"
     id="stop44" /><stop
     offset="0.61"
     style="stop-color:rgb(212,186,113);stop-opacity:1"
     id="stop45" /><stop
     offset="0.7"
     style="stop-color:rgb(202,176,104);stop-opacity:1"
     id="stop46" /><stop
     offset="0.78"
     style="stop-color:rgb(185,160,89);stop-opacity:1"
     id="stop47" /><stop
     offset="0.8"
     style="stop-color:rgb(179,154,84);stop-opacity:1"
     id="stop48" /><stop
     offset="0.86"
     style="stop-color:rgb(163,138,69);stop-opacity:1"
     id="stop49" /><stop
     offset="0.94"
     style="stop-color:rgb(147,122,53);stop-opacity:1"
     id="stop50" /><stop
     offset="1"
     style="stop-color:rgb(141,116,47);stop-opacity:1"
     id="stop51" /></linearGradient>
    </defs>
</svg>

<?xml version="1.0" encoding="UTF-8" standalone="no"?>
<!DOCTYPE svg PUBLIC "-//W3C//DTD SVG 1.1//EN" "http://www.w3.org/Graphics/SVG/1.1/DTD/svg11.dtd">
<svg width="100%" height="100%" viewBox="0 0 1000 1000" version="1.1" xmlns="http://www.w3.org/2000/svg" xmlns:xlink="http://www.w3.org/1999/xlink" xml:space="preserve" xmlns:serif="http://www.serif.com/" style="fill-rule:evenodd;clip-rule:evenodd;stroke-linejoin:round;stroke-miterlimit:2;">
    <g transform="matrix(1,0,0,1,-2416,0)">
        <g id="R" transform="matrix(1,0,0,1,-0.333333,0)">
            <rect x="2416.33" y="0" width="1000" height="1000" style="fill:none;"/>
            <g transform="matrix(1,0,0,1,2419.46,0.657907)">
                <path d="M929.178,560.502C929.178,560.502 853.749,894.821 500,979.362C500,979.362 173.993,931.036 71.431,560.502C71.431,560.502 195.792,533.305 198.857,381.189C201.922,229.072 57.062,201.875 57.062,201.875L212.392,20.84L787.371,20.84L942.722,201.875C942.722,201.875 801.18,236.582 800.487,381.189C799.795,525.796 929.178,560.502 929.178,560.502Z"/>
            </g>
            <g transform="matrix(1,0,0,1,2419.46,0.657907)">
                <path d="M133.678,184.941L224.784,78.827C224.784,78.827 276.518,147.932 310.429,237.724C344.339,327.515 381.986,534.785 328.65,748.235C328.65,748.235 325.782,778.185 304.243,836.648C304.243,836.648 175.57,745.035 128.42,587.278C128.42,587.278 205.789,552.867 235.897,454.671C235.897,454.671 287.35,274.672 133.678,184.941Z" style="fill:url(#_Linear1);"/>
            </g>
            <g transform="matrix(-1,0,0,1,3418.32,0.657907)">
                <path d="M133.678,184.941L224.784,78.827C224.784,78.827 276.518,147.932 310.429,237.724C344.339,327.515 381.986,534.785 328.65,748.235C328.65,748.235 325.782,778.185 304.243,836.648C304.243,836.648 175.57,745.035 128.42,587.278C128.42,587.278 205.789,552.867 235.897,454.671C235.897,454.671 287.35,274.672 133.678,184.941Z" style="fill:url(#_Linear2);"/>
            </g>
            <g transform="matrix(1,0,0,1,2419.46,0.657907)">
                <path d="M267.608,66.979L731.967,66.979C731.967,66.979 684.981,129.244 654.319,216.024C623.656,302.804 626.549,744.228 626.549,744.228C626.549,744.228 639.776,810.98 659.273,860.973C659.273,860.973 590.818,906.781 500,931.705C500,931.705 421.619,913.365 340.238,860.87C340.238,860.87 373.986,756.936 373.17,742.647L345.474,215.368C345.474,215.368 318.601,138.705 267.608,66.979Z" style="fill:url(#_Linear3);"/>
            </g>
            <g transform="matrix(1,0,0,1,2419.46,0.657907)">
                <path d="M102.341,391.289C102.341,391.289 347.251,171.091 500,166.912C500,166.912 598.635,137.476 896.147,390.312C896.147,390.312 743.937,445.359 694.7,523.106L728.945,586.582C728.945,586.582 654.939,581.701 673.433,624.855C673.433,624.855 694.491,651.765 720.439,614.24C720.439,614.24 734.81,582.304 736.806,569.33C736.806,569.33 738.802,559.15 757.765,556.954C757.765,556.954 779.721,555.158 783.114,583.701C786.507,612.244 793.041,635.738 776.465,676.127C759.889,716.516 717.387,743.61 669.748,748.093C669.748,748.093 595.208,757.901 552.053,690.927C508.897,623.952 559.338,548.011 559.338,548.011L513.101,519.988C513.101,519.988 592.405,484.399 572.789,419.386C553.173,354.373 487.95,364.462 487.95,364.462C487.95,364.462 439.681,366.703 425.39,424.711C411.098,482.718 481.155,517.82 485.919,519.988L439.681,548.497C439.681,548.497 486.742,617.292 448.649,688.891C448.649,688.891 427.138,729.871 373.691,744.477C320.244,759.084 250.198,737.654 223.309,675.428C196.419,613.202 224.637,564.07 224.637,564.07C224.637,564.07 253.85,542.161 264.805,575.689C275.76,609.218 282.067,627.809 300.99,633.784C319.912,639.759 327.879,620.505 327.879,620.505C327.879,620.505 332.527,595.276 308.625,588.968C299.162,586.471 291.117,586.337 285.046,586.115C275.783,585.777 270.899,586.302 270.899,586.302L304.211,524.206C304.211,524.206 251.52,437.606 102.341,391.289Z"/>
            </g>
            <g transform="matrix(1,0,0,1,2419.46,0.657907)">
                <path d="M821.306,378.66C821.306,378.66 693.625,438.982 652.372,523.111L670.811,556.88C670.811,556.88 623.715,577.305 636.878,628.837C650.041,680.369 709.695,670.006 709.695,670.006C709.695,670.006 735.181,663.005 749.744,634.438C749.744,634.438 748.624,667.766 721.178,690.731C693.731,713.696 660.124,712.576 660.124,712.576C660.124,712.576 618.674,713.696 588.427,679.249C558.18,644.801 578.065,593.549 578.065,593.549C578.065,593.549 583.666,571.144 611.672,536.696L579.465,516.811C579.465,516.811 638.342,463.607 597.109,383.781C597.109,383.781 559.088,309.843 470.226,332.326C381.364,354.809 387.788,448.489 387.788,448.489C387.788,448.489 390.391,490.901 418.494,516.6L385.954,537.123C385.954,537.123 446.445,597.097 422.125,662.656C422.125,662.656 396.395,718.345 328.369,712.001C260.343,705.657 249.769,634.811 249.769,634.811C249.769,634.811 271.27,681.336 320.967,669C320.967,669 377.714,659.484 361.853,593.925C361.853,593.925 356.919,570.31 326.959,556.563L346.697,523.079C346.697,523.079 302.432,437.942 178.475,378.824C178.475,378.824 374.926,204.717 499.89,203.864C624.854,203.012 821.306,378.66 821.306,378.66Z" style="fill:white;"/>
            </g>
        </g>
    </g>
    <defs>
        <linearGradient id="_Linear1" x1="0" y1="0" x2="1" y2="0" gradientUnits="userSpaceOnUse" gradientTransform="matrix(-664.516,8.13797e-14,-8.13797e-14,-664.516,355.298,372.44)"><stop offset="0" style="stop-color:rgb(141,116,47);stop-opacity:1"/><stop offset="0.07" style="stop-color:rgb(150,125,56);stop-opacity:1"/><stop offset="0.18" style="stop-color:rgb(174,149,79);stop-opacity:1"/><stop offset="0.2" style="stop-color:rgb(179,154,84);stop-opacity:1"/><stop offset="0.22" style="stop-color:rgb(185,160,89);stop-opacity:1"/><stop offset="0.3" style="stop-color:rgb(202,176,104);stop-opacity:1"/><stop offset="0.39" style="stop-color:rgb(212,186,113);stop-opacity:1"/><stop offset="0.5" style="stop-color:rgb(215,189,116);stop-opacity:1"/><stop offset="0.61" style="stop-color:rgb(212,186,113);stop-opacity:1"/><stop offset="0.7" style="stop-color:rgb(202,176,104);stop-opacity:1"/><stop offset="0.78" style="stop-color:rgb(185,160,89);stop-opacity:1"/><stop offset="0.8" style="stop-color:rgb(179,154,84);stop-opacity:1"/><stop offset="0.86" style="stop-color:rgb(163,138,69);stop-opacity:1"/><stop offset="0.94" style="stop-color:rgb(147,122,53);stop-opacity:1"/><stop offset="1" style="stop-color:rgb(141,116,47);stop-opacity:1"/></linearGradient>
        <linearGradient id="_Linear2" x1="0" y1="0" x2="1" y2="0" gradientUnits="userSpaceOnUse" gradientTransform="matrix(-664.516,8.13797e-14,-8.13797e-14,-664.516,355.298,372.44)"><stop offset="0" style="stop-color:rgb(141,116,47);stop-opacity:1"/><stop offset="0.07" style="stop-color:rgb(150,125,56);stop-opacity:1"/><stop offset="0.18" style="stop-color:rgb(174,149,79);stop-opacity:1"/><stop offset="0.2" style="stop-color:rgb(179,154,84);stop-opacity:1"/><stop offset="0.22" style="stop-color:rgb(185,160,89);stop-opacity:1"/><stop offset="0.3" style="stop-color:rgb(202,176,104);stop-opacity:1"/><stop offset="0.39" style="stop-color:rgb(212,186,113);stop-opacity:1"/><stop offset="0.5" style="stop-color:rgb(215,189,116);stop-opacity:1"/><stop offset="0.61" style="stop-color:rgb(212,186,113);stop-opacity:1"/><stop offset="0.7" style="stop-color:rgb(202,176,104);stop-opacity:1"/><stop offset="0.78" style="stop-color:rgb(185,160,89);stop-opacity:1"/><stop offset="0.8" style="stop-color:rgb(179,154,84);stop-opacity:1"/><stop offset="0.86" style="stop-color:rgb(163,138,69);stop-opacity:1"/><stop offset="0.94" style="stop-color:rgb(147,122,53);stop-opacity:1"/><stop offset="1" style="stop-color:rgb(141,116,47);stop-opacity:1"/></linearGradient>
        <linearGradient id="_Linear3" x1="0" y1="0" x2="1" y2="0" gradientUnits="userSpaceOnUse" gradientTransform="matrix(6.08511e-14,993.774,-993.774,6.08511e-14,500,-27.0208)"><stop offset="0" style="stop-color:rgb(141,116,47);stop-opacity:1"/><stop offset="0.07" style="stop-color:rgb(150,125,56);stop-opacity:1"/><stop offset="0.18" style="stop-color:rgb(174,149,79);stop-opacity:1"/><stop offset="0.2" style="stop-color:rgb(179,154,84);stop-opacity:1"/><stop offset="0.22" style="stop-color:rgb(185,160,89);stop-opacity:1"/><stop offset="0.3" style="stop-color:rgb(202,176,104);stop-opacity:1"/><stop offset="0.39" style="stop-color:rgb(212,186,113);stop-opacity:1"/><stop offset="0.5" style="stop-color:rgb(215,189,116);stop-opacity:1"/><stop offset="0.61" style="stop-color:rgb(212,186,113);stop-opacity:1"/><stop offset="0.7" style="stop-color:rgb(202,176,104);stop-opacity:1"/><stop offset="0.78" style="stop-color:rgb(185,160,89);stop-opacity:1"/><stop offset="0.8" style="stop-color:rgb(179,154,84);stop-opacity:1"/><stop offset="0.86" style="stop-color:rgb(163,138,69);stop-opacity:1"/><stop offset="0.94" style="stop-color:rgb(147,122,53);stop-opacity:1"/><stop offset="1" style="stop-color:rgb(141,116,47);stop-opacity:1"/></linearGradient>
    </defs>
</svg>
